X: 59
T:Getting Up Stairs. TLY.058
T:Such A Getting Upstairs,aka. TLY.058
M:2/4
L:1/16
S:Wm.Tildesley,Swinton,Lancs.1860s.
R:Misc.
O:England.
A:Lancashire.
N:A noted Morris dance tune.
H:1860.
Z:vmp.Taz Tarry.
K:G
G2| B2c2d2G2| B2c2 d4| e2d2 c2B2|A2B2 c4|\
 B2c2d2G2|! 
B2c2 d4| e2d2 c2B2|A2B2 c4||
dc|B2G2 D2G2| FGAB c2dc|!
B2G2D2G2| FGAB c2dc|B2G2D2G2| FGAB G4 dc|!
 BABG D2G2| FGAB cAdc| BABG D2G2| FGAB G4|]
